X:10
T:Fairy Prince, The
M:9/8
L:1/8
B:Thompson's Compleat Collection of 200 Favourite Country Dances, vol. 3 (London, 1773)
Z:Transcribed and edited by Flynn Titford-Mock, 2007
Z:abc's:AK/Fiddler's Companion
K:Bb
B3 dcB fed | cde GAB AGF | B3 dcB fed | cde cBA B3::f3 f3 cBA | f3 f3 cBA |
f3 f3 cBA | GBA GF=E F3::b2B b2B b2B | gfe dcB AGF | bbb bbb bag | fed cBA B3 :|

